X: 647
T: Hai tai
L: 1/16
M: 2/4
K: F
d2 d2 d c A c [I:setbarnb 1]| 
d2> c2d4 | 
c d f2 f d c A | 
G2> F2G4 | 
c2 c A d2 d f | 
A G F2 D2 C2 | 
F F2 A G2 F D | 
C8 |]

@@@ Tune index: 9521
